Delta/apps/scalable/applications-languages.svg

<?xml version="1.0" encoding="UTF-8" standalone="no"?>
<svg
   xmlns:dc="http://purl.org/dc/elements/1.1/"
   xmlns:cc="http://creativecommons.org/ns#"
   xmlns:rdf="http://www.w3.org/1999/02/22-rdf-syntax-ns#"
   xmlns:svg="http://www.w3.org/2000/svg"
   xmlns="http://www.w3.org/2000/svg"
   xmlns:sodipodi="http://sodipodi.sourceforge.net/DTD/sodipodi-0.dtd"
   xmlns:inkscape="http://www.inkscape.org/namespaces/inkscape"
   width="192"
   height="192"
   viewBox="0 0 192 192"
   version="1.1"
   id="svg10"
   sodipodi:docname="applications-languages.svg"
   inkscape:version="0.92.4 (f8dce91, 2019-08-02)">
  <metadata
     id="metadata16">
    <rdf:RDF>
      <cc:Work
         rdf:about="">
        <dc:format>image/svg+xml</dc:format>
        <dc:type
           rdf:resource="http://purl.org/dc/dcmitype/StillImage" />
        <dc:title></dc:title>
      </cc:Work>
    </rdf:RDF>
  </metadata>
  <defs
     id="defs14" />
  <sodipodi:namedview
     pagecolor="#ffffff"
     bordercolor="#666666"
     borderopacity="1"
     objecttolerance="10"
     gridtolerance="10"
     guidetolerance="10"
     inkscape:pageopacity="0"
     inkscape:pageshadow="2"
     inkscape:window-width="1920"
     inkscape:window-height="1002"
     id="namedview12"
     showgrid="false"
     inkscape:zoom="2.4583333"
     inkscape:cx="41.204077"
     inkscape:cy="90.365103"
     inkscape:window-x="1920"
     inkscape:window-y="0"
     inkscape:window-maximized="1"
     inkscape:current-layer="svg10" />
  <path
     style="fill:#ffffff;fill-rule:evenodd"
     inkscape:connector-curvature="0"
     id="path2"
     d="M 20,161.99748 C 20,167.52172 24.477003,172 30.002517,172 H 161.99748 C 167.52172,172 172,167.523 172,161.99748 V 30.002517 C 172,24.478279 167.523,20 161.99748,20 H 30.002517 C 24.478279,20 20,24.477003 20,30.002517 Z" />
  <line
     style="fill:none;fill-rule:evenodd;stroke:#d2d2d2;stroke-width:10"
     id="line4"
     y2="171.63699"
     y1="68"
     x2="65"
     x1="65" />
  <path
     style="fill:#ba6561;fill-rule:evenodd;fill-opacity:1"
     inkscape:connector-curvature="0"
     id="path6"
     d="m 70,68 h 64.99386 c 2.76482,0 3.59566,1.746306 1.86223,3.892463 l -14.71218,18.215074 c -1.73633,2.149748 -1.73343,5.638769 0,7.784926 l 14.71218,18.215077 C 138.59242,118.25728 137.76988,120 134.99386,120 H 70 Z" />
</svg>

<svg width="192" height="192" version="1.1" viewBox="0 0 192 192" xmlns="http://www.w3.org/2000/svg">
 <path d="m20 162c0 5.5242 4.477 10.003 10.003 10.003h131.99c5.5242 0 10.003-4.477 10.003-10.003v-131.99c0-5.5242-4.477-10.003-10.003-10.003h-131.99c-5.5242 0-10.003 4.477-10.003 10.003z" style="fill-rule:evenodd;fill:#fff"/>
 <rect x="60" y="68" width="10" height="104" style="fill:#d2d2d2;paint-order:stroke fill markers;stroke-width:1.0024"/>
 <path d="m70 68h64.994c2.7648 0 3.5957 1.7463 1.8622 3.8925l-14.712 18.215c-1.7363 2.1497-1.7334 5.6388 0 7.7849l14.712 18.215c1.7363 2.1497 0.91379 3.8925-1.8622 3.8925h-64.994z" style="fill-rule:evenodd;fill:#ba6561"/>
</svg>
